X: 242
T:Miss Farquharson of Invercauld
B:William Marshall Volume 2nd Of A Collection Of Scottish Melodies (1845)
C:William Marshall
L:1/8
M:4/4
O:Scotland
R:Strathspey
Z:Clark Bernst + Richard Robinson
%%Page:6 - 2
F:http://richardrobinson.tunebook.org.uk/tune/4085
%%TBL:{"version":1,"type":"tune","id":"4085"}
K:F
%%staves {1 2}
V:1
F | \
[A,C]<FF>G [CA]>GA>F | D<GGA B2 A>c | \
d>f c<f A>F G<A & F4 C2C2 | C>FE>G F2 FF & C2B,2A,2A,2 |
[A,C]<FF>G [CA]>G[CA]>F | D<GGA B2 A>c | \
d>f c<f A>F G<A & F4C2C2 | C>FE>G F2 F & C2B,2A, |]
(e | \
f)>c f<a f>cfa | f>c f<a g2 (ga) | \
f<cc>A f>b a<g | f<dc>A G2 (G>g) |
f>c c<a fcc(a | f)cfa g2 (ga) | \
f>c c<G f>ba>g | f<dc>A G2 G |]
V:2 middle=d clef=bass
L:1/4
z/ | \
[Ff] [Ff] [Ff] [Ff] | [Bb] [Bb]/[Aa]/ [Gg] [Ff] | \
[Bb] [Aa] [Ff] [Ff] | [Cc] [Cc]      [Ff] [Ff] | \
[Ff] [Ff] [Ff] [Ff] | [Bb] [Bb]/[Aa]/ [Gg] [Ff] | \
[Bb] [Aa] [Ff] [Ff] | [Cc] [Cc]      [Ff] [Ff]/ |] \
z/ | \
[fac'] [fac'] [fac'] [fac'] | [fac'] [fac'] [cc'] [cc'] | \
[fac'] [fac'] [dd']  [Bb]   | [Ff] [Ff] [Cc] [Cc] | \
[fac'] [fac'] [fac'] [fac'] | [fac'] [fac'] [cc'] [cc'] | \
[fac'] [fac']  [dd'] [Bb]   | [Ff] [Ff] [Cc] [Cc]/ |]

